X:1
T:Jesus Saves
T:Jesus Saves
T:William James Kirkpatrick
T:Priscilla Jane Owens, 1882
T:Public Domain Courtesy of the Cyber Hymnal™
T:Public Domain Courtesy of the Cyber Hymnal™
C:William James Kirkpatrick
Z:Public Domain
Z:Courtesy of the Cyber Hymnal™
%%score 1 ( 2 3 )
L:1/8
Q:1/4=108
M:3/4
K:G
V:1 treble 
V:2 bass 
V:3 bass 
V:1
 [B,D]>[B,D] | [B,G]7/2 [B,D]/ [B,G]>[CA] | [DB]4 [Dd]>[Dd] | [Dd]4 [DB]>[DG] | [FA]4 [CD]>[CD] | %5
w: 1.~We have|heard the joy- ful|sound: Je- sus|saves! Je- sus|saves! Spread the|
w: 2.~Waft it|on the roll- ing|tide: Je- sus|saves! Je- sus|saves! Tell to|
w: 3.~Sing a-|bove the bat- tle|strife: Je- sus|saves! Je- sus|saves! By His|
w: 4.~Give the|winds a might- y|voice: Je- sus|saves! Je- sus|saves! Let the|
 [B,G]7/2 [B,D]/ [B,G]>[CA] | [DB]4 [Dd]>[Gd] | [Fd]4 [FA]>[FB] | [DG]4 [EG]>[EG] | %9
w: tid- ings all a-|round: Je- sus|saves! Je- sus|saves! Bear the|
w: sin- ners far and|wide: Je- sus|saves! Je- sus|saves! Sing, you|
w: death and end- less|life, Je- sus|saves! Je- sus|saves! Shout it|
w: na- tions now re-|joice: Je- sus|saves! Je- sus|saves! Shout sal-|
 [Ec]7/2 [Ec]/ [Ec]>[Ec] | [Ec]4 [DG]>[DA] | [GB]7/2 [GB]/ [Gd]>[GB] | [FA]4 [Fd]>[Fd] | %13
w: news to ev- ery|land, Climb the|mount- ains, cross the|waves; On- ward!|
w: is- lands of the|sea; E- cho|back, you o- cean|caves; Earth shall|
w: bright- ly through the|gloom, When the|heart for mer- cy|craves; Sing in|
w: va- tion full and|free; High- est|hills and deep- est|caves; This our|
 [Gd]7/2 [GB]/ [Gc]>[Gd] | [Ge]4 [Gd]>[Gd] | [Fd]4 [FA]>[FB] | [DG]4 |] %17
w: ’tis our Lord’s com-|mand; Je- sus|saves! Je- sus|saves!|
w: keep her ju- bi-|lee: Je- sus|saves! Je- sus|saves!|
w: tri- umph o’er the|tomb: Je- sus|saves! Je- sus|saves!|
w: song of vic- to-|ry: Je- sus|saves! Je- sus|saves!|
V:2
 [G,,G,]>[G,,G,] | [G,,D,]7/2 [G,,G,]/ [G,,G,]>[G,,G,] | [G,,G,]4 [G,B,]>[G,B,] | %3
 [G,B,]4 G,>[G,B,] | [D,D]4 [D,F,]>[D,F,] | [G,,G,]7/2 [G,,G,]/ [G,,G,]>[G,,G,] | %6
 [G,,G,]4 [G,B,]>[G,B,] | [D,A,]4 [D,C]>[D,D] | [G,B,]4 [C,C]>[C,C] | %9
 [C,G,]7/2 [C,G,]/ [C,G,]>[C,G,] | [C,G,]4 [G,B,]>[G,C] | [G,D]7/2 [G,D]/ [G,B,]>[G,D] | %12
 [D,D]4 [D,A,]>[D,A,] | [G,B,]7/2 [=F,D]/ [E,C]>[D,B,] | [C,C]4 [G,B,]>[G,B,] | %15
 [D,A,]4 [D,C]>[D,D] | [G,,G,B,]4 |] %17
V:3
 x2 | x6 | x6 | x4 G,3/2 x/ | x6 | x6 | x6 | x6 | x6 | x6 | x6 | x6 | x6 | x6 | x6 | x6 | x4 |] %17

